!!!!SEGMENT: pl-gd--ee-1638--007-019_marenzio-luca--il-terzo-libro-de-madrigalia-a-sei-voci-con-dolce-sguardo.krn
!!!cenid: 15xx:860
!!!COM: Marenzio, Luca
!!!COM-rismid: pe30003955
!!!CDT: ~1553-1599/08/22
!!!CNT: Italian
!!!GTL: Il Terzo Libro de madrigalia a sei voci
!!!OTL: Con dolce sguardo
!!!OMV: 019
!!!PDT: 1585
!!!AGN:
!!!SMS-siglum: PL-GD
!!!SMS-shelfmark: Ee 1638
!!!SMS-variant:
!!!SMS-altvar:
!!!SMS-shelfwork: 007-019 G
!!!NIFC-rismid: 990039250
!!!URL-scan: https://repozytorium.nifc.pl/islandora/object/pl-gd%3A57883/datastream/PDF/view
!!!ONB-nifc: UWAGA: zbiór na stronach: Canto: s. 694-704, Alto: s. 542-552, Tenore: s. 390-400, Basso: s. 237-248, Quinto: s. 85-96, Sesto: s. 3-14. Uwaga: utwory podzielone wg tytułów w spisach treści dostępnych na końcu każdej księgi głosowej.
!!!AIN: 1 alto 1 bass 1 soprn 1 tenor 2 vox
!!!key: C
**kern	**text	**kern	**text	**kern	**text	**kern	**text	**kern	**text	**kern	**text
*part6	*part6	*part5	*part5	*part4	*part4	*part3	*part3	*part2	*part2	*part1	*part1
*staff6	*staff6	*staff5	*staff5	*staff4	*staff4	*staff3	*staff3	*staff2	*staff2	*staff1	*staff1
*I"BASSO	*	*I"SESTO	*	*I"TENORE	*	*I"ALTO	*	*I"QVINTO	*	*I"CANTO	*
*I'B	*	*I'V II	*	*I'T	*	*I'A	*	*I'V I	*	*I'S	*
*ICvox	*	*ICvox	*	*ICvox	*	*ICvox	*	*ICvox	*	*ICvox	*
*Ibass	*	*Ivox	*	*Itenor	*	*Ialto	*	*Ivox	*	*Isoprn	*
*clefF3	*	*clefC3	*	*clefC3	*	*clefC2	*	*clefG2	*	*clefG2	*
*k[b-]	*	*k[b-]	*	*k[b-]	*	*k[b-]	*	*k[b-]	*	*k[b-]	*
*C:	*	*C:	*	*C:	*	*C:	*	*C:	*	*C:	*
*M4/4	*	*M4/4	*	*M4/4	*	*M4/4	*	*M4/4	*	*M4/4	*
*met(C)	*	*met(C)	*	*met(C)	*	*met(C)	*	*met(C)	*	*met(C)	*
=1-	=1-	=1-	=1-	=1-	=1-	=1-	=1-	=1-	=1-	=1-	=1-
!LO:TX:b:t=Con dolce	!	!LO:TX:b:t=Con dolce	!	!	!	!LO:TX:t=P:problem:podwójnie zapisany znak przykluczowy, kolejno: B- b-	!	!	!	!	!
!LO:TX:a:t=Prima parte.	!	!LO:TX:a:t=Prima parte.	!	!LO:TX:a:t=Prima parte.	!	!LO:TX:a:t=Prima parte.	!	!LO:TX:a:t=Prima parte.	!	!LO:TX:a:t=Prima parte.	!
!LO:TX:t=P:problem:podwójnie zapisany znak przykluczowy, kolejno: BB- B-	!	!	!	!	!	!	!	!	!	!	!
00r	.	00r	.	1c	COn	1e	COn	1g	Con	1cc	COn
=2-	=2-	=2-	=2-	=2-	=2-	=2-	=2-	=2-	=2-	=2-	=2-
.	.	.	.	1.A	dol-	1.e	dol-	1.a	dol-	1.cc#X	dol-
=3-	=3-	=3-	=3-	=3-	=3-	=3-	=3-	=3-	=3-	=3-	=3-
!	!	!	!	!	!	!	!	!LO:N:acc=#	!	!	!
.	.	.	.	2G/	-ce	2g\	-ce	2bn/	-ce	2dd\	-ce
=4-	=4-	=4-	=4-	=4-	=4-	=4-	=4-	=4-	=4-	=4-	=4-
.	.	.	.	1c	ſguard'-	1g	ſguar-	1cc	ſguard'-	1ee	ſguar-
=5-	=5-	=5-	=5-	=5-	=5-	=5-	=5-	=5-	=5-	=5-	=5-
00r	.	00r	.	1c	-al-	2g\	-d'al-	1cc	-al-	1ee	-do
.	.	.	.	.	.	2.a\	-qua-	.	.	.	.
=6-	=6-	=6-	=6-	=6-	=6-	=6-	=6-	=6-	=6-	=6-	=6-
.	.	.	.	1d	-quant'-	.	.	1f	-qua-	2r	.
.	.	.	.	.	.	4a\	-nt'a-	.	.	.	.
.	.	.	.	.	.	1b-\	-cer-	.	.	2ff\	al-
=7-	=7-	=7-	=7-	=7-	=7-	=7-	=7-	=7-	=7-	=7-	=7-
.	.	.	.	2e\	-a-	.	-'-	2g/	-nt'a-	2ee\	-quant'-
.	.	.	.	1f\	-cerb'-	2a\	-b'in	2a/	-ccer-	2ccny\	-a-
=8-	=8-	=8-	=8-	=8-	=8-	=8-	=8-	=8-	=8-	=8-	=8-
!	!	!	!	!	!	!	!	!LO:N:acc=#	!	!	!
.	.	.	.	.	.	1g	viſ-	2bn/	-b'in	2dd\	-cer-
.	.	.	.	2e\	-in	.	.	2.cc\	vi-	2ee\	-b'in
=9-	=9-	=9-	=9-	=9-	=9-	=9-	=9-	=9-	=9-	=9-	=9-
0r	.	0r	.	1d	viſ-	1f	-ta	.	.	1ff	viſ-
.	.	.	.	.	.	.	.	8bny/	.	.	.
.	.	.	.	.	.	.	.	8a/	.	.	.
!	!	!	!	!	!	!	!	!LO:N:acc=#	!	!	!
.	.	.	.	.	.	.	.	2bn/	.	.	.
*	*	*	*	*	*	*	*	*custos:cc	*	*	*
!	!	!	!	!	!	!	!	!LO:LB:g=original	!	!	!
=10-	=10-	=10-	=10-	=10-	=10-	=10-	=10-	=10-	=10-	=10-	=10-
.	.	.	.	1c	-ta	1r	.	1cc	-ſta	1ee	-ta
=11-	=11-	=11-	=11-	=11-	=11-	=11-	=11-	=11-	=11-	=11-	=11-
1c	Con	1e	Con	00r	.	1g	Con	2r	.	2r	.
.	.	.	.	.	.	.	.	2ee\	Con	2cc\	Con
*	*	*	*	*	*	*	*	*	*	*custos:cc#	*
!	!	!	!	!	!	!	!	!	!	!LO:LB:g=original	!
=12-	=12-	=12-	=12-	=12-	=12-	=12-	=12-	=12-	=12-	=12-	=12-
2.A\	la-	2.e\	la-	.	.	2.a\	la-	2.ee\	la-	2.cc#X\	la-
4A\	-gri-	4e\	-gri-	.	.	4a\	-gri-	4ee\	-gri-	4cc#\	-gri-
*	*	*	*	*	*	*custos:a	*	*	*	*	*
!	!	!	!	!	!	!LO:LB:g=original	!	!	!	!	!
=13-	=13-	=13-	=13-	=13-	=13-	=13-	=13-	=13-	=13-	=13-	=13-
2A\	-mar	2e\	-mar	.	.	2a\	-mar	2ee\	-mar	2cc#yX\	-mar
2D/	col	2d\	col	.	.	2a\	col	2ff#X\	col	2dd\	col
=14-	=14-	=14-	=14-	=14-	=14-	=14-	=14-	=14-	=14-	=14-	=14-
1G	cor	1d	cor	.	.	1b-	cor	0gg	cor	1dd	cor
=15-	=15-	=15-	=15-	=15-	=15-	=15-	=15-	=15-	=15-	=15-	=15-
4c\	ri-	4e\	ri-	0r	.	2r	.	.	.	1r	.
8B-\	.	8d\	.	.	.	.	.	.	.	.	.
8A\	.	8c\	.	.	.	.	.	.	.	.	.
4B-\	.	4d\	.	.	.	4dd\	ri-	.	.	.	.
4c\	.	4e\	.	.	.	8cc\	.	.	.	.	.
.	.	.	.	.	.	8b-\	.	.	.	.	.
*custos:d	*	*custos:f	*	*	*	*	*	*	*	*	*
!LO:LB:g=original	!	!LO:LB:g=original	!	!	!	!	!	!	!	!	!
=16-	=16-	=16-	=16-	=16-	=16-	=16-	=16-	=16-	=16-	=16-	=16-
4d\	.	2f\	.	.	.	2a\	.	2r	.	4ff\	ri-
8c\	.	.	.	.	.	.	.	.	.	8ee\	.
8B-\	.	.	.	.	.	.	.	.	.	8dd\	.
2A\	.	2c/	-der	.	.	2a\	-dder	4cc\	ri-	4ee\	.
.	.	.	.	.	.	.	.	8b-y/	.	4ff\	.
.	.	.	.	.	.	.	.	8a/	.	.	.
=17-	=17-	=17-	=17-	=17-	=17-	=17-	=17-	=17-	=17-	=17-	=17-
2G\	-der	1r	.	4g\	ri-	0r	.	4b-/	.	4ee\	.
.	.	.	.	8f\	.	.	.	8a/	.	8dd\	.
.	.	.	.	8e\	.	.	.	8g/	.	8ccny\	.
*	*	*	*	*custos:f	*	*	*	*	*	*	*
!	!	!	!	!LO:LB:g=original	!	!	!	!	!	!	!
2r	.	.	.	4f\	.	.	.	4a/	.	4dd\	.
.	.	.	.	4g\	.	.	.	4b-/	.	4ee\	.
=18-	=18-	=18-	=18-	=18-	=18-	=18-	=18-	=18-	=18-	=18-	=18-
1r	.	2r	.	4a\	.	.	.	4cc\	.	4ff\	.
.	.	.	.	8g\	.	.	.	8b-/	.	8ee\	.
.	.	.	.	8f\	.	.	.	8a/	.	8dd\	.
.	.	4g\	ri-	2e\	.	.	.	2g/	.	2cc#X\	.
.	.	8f\	.	.	.	.	.	.	.	.	.
.	.	8e\	.	.	.	.	.	.	.	.	.
=19-	=19-	=19-	=19-	=19-	=19-	=19-	=19-	=19-	=19-	=19-	=19-
1r	.	4f\	.	1d	-der	1r	.	2a/	-der	1dd	-der
.	.	4g\	.	.	.	.	.	.	.	.	.
.	.	4a\	.	.	.	.	.	4ffny\	ri-	.	.
.	.	8g\	.	.	.	.	.	8ee\	.	.	.
.	.	8f\	.	.	.	.	.	8dd\	.	.	.
*	*	*	*	*	*	*	*	*custos:ee	*	*	*
!	!	!	!	!	!	!	!	!LO:LB:g=original	!	!	!
=20-	=20-	=20-	=20-	=20-	=20-	=20-	=20-	=20-	=20-	=20-	=20-
2r	.	2e\	.	4g\	ri-	2r	.	4ee\	.	2r	.
.	.	.	.	8f\	.	.	.	8dd\	.	.	.
.	.	.	.	8e\	.	.	.	8cc\	.	.	.
1D/	con	2a\	-der	4f\	.	1d/	con	4dd\	.	2a/	con
.	.	.	.	4g\	.	.	.	4ee\	.	.	.
*	*	*	*	*	*	*	*	*	*	*custos:a	*
!	!	!	!	!	!	!	!	!	!	!LO:LB:g=original	!
=21-	=21-	=21-	=21-	=21-	=21-	=21-	=21-	=21-	=21-	=21-	=21-
.	.	1r	.	4a\	.	.	.	4ff\	.	2a/	gl'oc-
.	.	.	.	8g\	.	.	.	8ee\	.	.	.
.	.	.	.	8f\	.	.	.	8dd\	.	.	.
2A\	gl'oc-	.	.	2e\	.	2e/	gl'oc-	2cc#X\	.	2dd\	-chi
=22-	=22-	=22-	=22-	=22-	=22-	=22-	=22-	=22-	=22-	=22-	=22-
4D/	-chi	4r	.	2d\	-der	4f\	-chi	2dd\	-der	2r	.
4.d\	Tut-	4.f\	Tut-	.	.	4.a\	Tut-	.	.	.	.
.	.	.	.	2d\	con	.	.	4r	.	4r	.
8c\	-ta	8e\	-ta	.	.	8a\	-ta	.	.	.	.
!	!	!	!	!	!	!	!	!	!	!LO:N:acc=#	!
4B-\	feſ-	4d\	teſ-	.	.	2g\	teſ-	4dd\	con	4.bn/	Tu-
=23-	=23-	=23-	=23-	=23-	=23-	=23-	=23-	=23-	=23-	=23-	=23-
2A\	-to-	4e\	-to-	2a\	gl'oc-	.	.	2ccny\	gl'oc-	.	.
.	.	.	.	.	.	.	.	.	.	8bny/	-tta
.	.	4c/	-ſa	.	.	4f#X\	-to-	.	.	4ccny\	feſ-
!	!	!	!	!	!	!	!	!LO:N:acc=#	!	!	!
1.G\	-ſa	2r	.	4d\	-chi	1.g\	-sa	4bn/	-chi	2dd\	-to-
.	.	.	.	4.g\	Tut-	.	.	4.dd\	Tut-	.	.
=24-	=24-	=24-	=24-	=24-	=24-	=24-	=24-	=24-	=24-	=24-	=24-
.	.	1r	.	.	.	.	.	.	.	1ee	-ſa
.	.	.	.	8f\	-ta	.	.	8dd\	-ta	.	.
.	.	.	.	4e\	fe-	.	.	2cc\	teſ-	.	.
*	*	*	*	*custos:c	*	*	*	*	*	*	*
!	!	!	!	!LO:LB:g=original	!	!	!	!	!	!	!
.	.	.	.	2d\	-ſto-	.	.	.	.	.	.
!	!	!	!	!	!	!	!	!LO:N:acc=#	!	!	!
.	.	.	.	.	.	.	.	4bn/	-to-	.	.
=25-	=25-	=25-	=25-	=25-	=25-	=25-	=25-	=25-	=25-	=25-	=25-
!	!	!	!	!	!	!	!	!	!	!LO:N:vis=2	!
2r	.	2r	.	1c	-ſa	2r	.	1cc	-ſa	1.r	.
1C/	in	1e\	in	.	.	1g\	in	.	.	.	.
=26-	=26-	=26-	=26-	=26-	=26-	=26-	=26-	=26-	=26-	=26-	=26-
.	.	.	.	2r	.	.	.	2r	.	.	.
1F\	vn	1A/	vn	1c\	in	1fny\	vn	1a/	in	1cc\	in
*	*	*custos:d	*	*	*	*custos:f	*	*	*	*	*
!	!	!LO:LB:g=original	!	!	!	!LO:LB:g=original	!	!	!	!	!
=27-	=27-	=27-	=27-	=27-	=27-	=27-	=27-	=27-	=27-	=27-	=27-
2D/	tur-	2d\	tur-	2F/	vn	2f\	tur-	1a/	vn	1ff\	vn
=28-	=28-	=28-	=28-	=28-	=28-	=28-	=28-	=28-	=28-	=28-	=28-
1C#X	-ba.	1e	-bat'	2r	.	1.a	-bat'	.	.	.	.
.	.	.	.	2A/	tur-	.	.	2e/	tur-	2ee\	tur-
*custos:D	*	*	*	*	*	*	*	*custos:a	*	*	*
!LO:LB:g=original	!	!	!	!	!	!	!	!LO:LB:g=original	!	!	!
=29-	=29-	=29-	=29-	=29-	=29-	=29-	=29-	=29-	=29-	=29-	=29-
1D	t'et	1f#X	et	1A	-bat'	.	.	1a	-bat'	1dd	-bat'
.	.	.	.	.	.	1d/	et	.	.	.	.
=30-	=30-	=30-	=30-	=30-	=30-	=30-	=30-	=30-	=30-	=30-	=30-
!	!	!	!	!	!	!	!	!LO:N:acc=#	!	!	!
1G	triſ-	1g	triſ-	2G/	et	.	.	2bn/	et	2dd\	et
.	.	.	.	1g\	triſ-	1c/	triſ-	1cc\	triſ-	1ee-X\	triſ-
=31-	=31-	=31-	=31-	=31-	=31-	=31-	=31-	=31-	=31-	=31-	=31-
1G	-ta	1g	-ta	.	.	.	.	.	.	.	.
!	!	!	!	!	!	!	!	!LO:N:acc=#	!	!	!
.	.	.	.	2G/	-ta	2d/	-ta	2bn/	-ta	2dd\	-ta
=32-	=32-	=32-	=32-	=32-	=32-	=32-	=32-	=32-	=32-	=32-	=32-
4r	.	4r	.	1r	.	1r	.	4r	.	4r	.
4.c\	Qua-	4.e\	Qua-	.	.	.	.	4.cc\	Qua-	4.g/	Qua-
8c\	-ſi	8e\	-ſi	.	.	.	.	8cc\	-ſi	8g/	-ſi
4A\	dal	4e\	dal	.	.	.	.	4cc#X\	dal	4a/	dal
*	*	*	*	*	*	*	*	*	*	*custos:a	*
!	!	!	!	!	!	!	!	!	!	!LO:LB:g=original	!
=33-	=33-	=33-	=33-	=33-	=33-	=33-	=33-	=33-	=33-	=33-	=33-
2d\	cor-	2f#X\	cor-	0r	.	0r	.	2dd\	cor-	2a/	cor-
2G\	-po	2g\	-po	.	.	.	.	2dd\	-po	2b-y/	-po
=34-	=34-	=34-	=34-	=34-	=34-	=34-	=34-	=34-	=34-	=34-	=34-
4A\	fuor	4e\	fuor	.	.	.	.	4ccny\	fuor	4a/	fuor
4.F/	l'a-	4.fny\	l'a-	.	.	.	.	4.a/	l'a-	4.cc\	l'-
8E/	-ni-	8g\	-ni-	.	.	.	.	8g/	-ni-	8cc\	-ni-
4F/	-ma	4f\	-ma	.	.	.	.	4a/	-ma	4cc\	-ma
=35-	=35-	=35-	=35-	=35-	=35-	=35-	=35-	=35-	=35-	=35-	=35-
2.BB-/	ſcho-	2.f\	ſchoc-	1r	.	1r	.	4.b-y\	ſchoc-	4.dd\	ſcoc-
.	.	.	.	.	.	.	.	8cc\	.	8eeny\	.
.	.	.	.	.	.	.	.	4dd\	.	4ff\	.
4BB-/	-cchi	4f\	-chi	.	.	.	.	4b-/	chi	4dd\	-chi
=36-	=36-	=36-	=36-	=36-	=36-	=36-	=36-	=36-	=36-	=36-	=36-
1r	.	1r	.	2r	.	2r	.	2r	.	2r	.
.	.	.	.	1A/	Dun-	1a\	Dun-	1cc\	Dun-	1ee\	Dun-
=37-	=37-	=37-	=37-	=37-	=37-	=37-	=37-	=37-	=37-	=37-	=37-
00r	.	00r	.	.	.	.	.	.	.	.	.
.	.	.	.	1c\	-que	1g\	-que	1cc\	-que	1ee\	-que
*	*	*	*	*	*	*	*	*custos:a	*	*	*
!	!	!	!	!	!	!	!	!LO:LB:g=original	!	!	!
=38-	=38-	=38-	=38-	=38-	=38-	=38-	=38-	=38-	=38-	=38-	=38-
.	.	.	.	2d\	cru-	2f\	cru-	4r	.	4r	.
.	.	.	.	.	.	.	.	4a/	cru-	4dd\	cru-
=39-	=39-	=39-	=39-	=39-	=39-	=39-	=39-	=39-	=39-	=39-	=39-
.	.	.	.	1B-	-del	1b-	-del	1dd	-del	1ff	-del
=40-	=40-	=40-	=40-	=40-	=40-	=40-	=40-	=40-	=40-	=40-	=40-
.	.	.	.	4c/	ſi	4g\	ſi	4cc\	ſi	4ee\	ſi
.	.	.	.	2G/	deg-	2g\	deg-	2b-/	de-	2dd\	deg-
.	.	.	.	4F#X/	-no	4a\	-no	4a/	-gno	4dd\	-no
=41-	=41-	=41-	=41-	=41-	=41-	=41-	=41-	=41-	=41-	=41-	=41-
!	!	!	!	!	!	!	!	!LO:N:acc=#	!	!	!
0r	.	0r	.	4G/	pre-	4g\	pre-	4bn/	pre-	4dd\	pre-
.	.	.	.	4A/	-mio'ac	4e\	-mio'-	4cc\	-mi'-	4cc\	-moc'ac
*	*	*	*	*custos:G	*	*	*	*	*	*custos:b	*
!	!	!	!	!	!	!	!	!	!	!LO:LB:g=original	!
!	!	!	!	!LO:LB:g=original	!	!	!	!	!	!LO:N:acc=#	!
.	.	.	.	1G/	quiſs-	1g\	-acqu-	1dd\	-acqui-	1bn\	qusſ-
=42-	=42-	=42-	=42-	=42-	=42-	=42-	=42-	=42-	=42-	=42-	=42-
.	.	.	.	4G/	-ta	4g\	-sſta	4dd\	-ſta	4bny\	-ta
.	.	.	.	4c/	S'a-	4g\	S'a-	4ee\	s'a-	4cc\	S'a-
*	*	*	*	*	*	*custos:b-	*	*	*	*	*
!	!	!	!	!	!	!LO:LB:g=original	!	!	!	!	!
=43-	=43-	=43-	=43-	=43-	=43-	=43-	=43-	=43-	=43-	=43-	=43-
1r	.	1r	.	4.B-/	-uien	4.b-\	-uen	4.ff\	-uien	4.dd\	-uien
.	.	.	.	8B-/	ch'à	8b-\	chà	8ff\	ch'à	8dd\	ch'à
.	.	.	.	4B-/	ſer-	4b-\	ſer-	4ff\	ſer-	4dd\	ſer-
.	.	.	.	4c/	-uir	4g\	-uir	4ee\	-uir	4cc\	-uir
=44-	=44-	=44-	=44-	=44-	=44-	=44-	=44-	=44-	=44-	=44-	=44-
4r	.	4r	.	1d	huom	4.f\	hu-	1dd	huom	2a/	huõ
4.d\	don-	4.f\	don-	.	.	.	.	.	.	.	.
.	.	.	.	.	.	8e/	.	.	.	.	.
.	.	.	.	.	.	2d/	-om	.	.	2r	.
8B-\	-na	8d\	-na	.	.	.	.	.	.	.	.
4G\	tra-	4B-/	tra-	.	.	.	.	.	.	.	.
*custos:D	*	*custos:A	*	*	*	*	*	*	*	*	*
!LO:LB:g=original	!	!LO:LB:g=original	!	!	!	!	!	!	!	!	!
=45-	=45-	=45-	=45-	=45-	=45-	=45-	=45-	=45-	=45-	=45-	=45-
1D	-oc-	4A/	-boc-	4.f\	don-	4r	.	4r	.	4.gg\	don-
.	.	4A/	-chi	.	.	4.f\	don-	4.aa\	don-	.	.
.	.	.	.	8d\	-na	.	.	.	.	8ff\	-na
*	*	*	*ij	*	*	*	*	*	*	*	*
.	.	4.a\	don-	4A/	tra-	.	.	.	.	4dd\	tra-
.	.	.	.	.	.	8d/	-na	8ff\	-na	.	.
.	.	.	.	4Fny/	-boc-	4f\	tra-	4dd\	tra-	4a/	-boc-
.	.	8f\	-na	.	.	.	.	.	.	.	.
*	*	*	*	*	*	*	*	*custos:a	*	*	*
!	!	!	!	!	!	!	!	!LO:LB:g=original	!	!	!
=46-	=46-	=46-	=46-	=46-	=46-	=46-	=46-	=46-	=46-	=46-	=46-
1D	-chi	4d\	tra-	4F/	-chi	2F/	-boc-	4a/	-boc-	4f/	-chi
.	.	4A/	-boc-	4.f\	don-	.	.	4f/	-chi	4.aa\	don-
.	.	4F/	-chi	.	.	2f\	-chi	4.aa\	don-	.	.
.	.	.	.	8d\	-na	.	.	.	.	8ff\	-na
*	*	*	*Xij	*	*	*	*	*	*	*	*
.	.	4.a\	don-	4f\	tra-	.	.	.	.	4dd\	tra-
.	.	.	.	.	.	.	.	8ff\	-na	.	.
=47-	=47-	=47-	=47-	=47-	=47-	=47-	=47-	=47-	=47-	=47-	=47-
4.d\	don-	.	.	2f\	-boc-	2r	.	2dd\	tra-	4a/	-boc-
.	.	8f\	-na	.	.	.	.	.	.	.	.
.	.	2d\	tra-	.	.	.	.	.	.	4f/	-chi
8B-\	-na	.	.	.	.	.	.	.	.	.	.
2G\	tra-	.	.	4B-/	-chi	4.g\	don-	2b-y\	-boc-	2r	.
*	*	*	*	*custos:g	*	*	*	*	*	*	*
!	!	!	!	!LO:LB:g=original	!	!	!	!	!	!	!
.	.	2e\	-boc-	4.g\	Don-	.	.	.	.	.	.
.	.	.	.	.	.	8e\	-na	.	.	.	.
=48-	=48-	=48-	=48-	=48-	=48-	=48-	=48-	=48-	=48-	=48-	=48-
!	!	!	!	!	!	!	!	!	!	!LO:SIC:v:t=custos dd	!
2A\	-boc-	.	.	.	.	4c#X/	tra-	0a	-chi	1r	.
.	.	.	.	8g\	-na	.	.	.	.	.	.
.	.	4a\	-chi	4f\	tra-	2d/	-boc-	.	.	.	.
2AA/	-chi	2r	.	2e\	-boc-	.	.	.	.	.	.
.	.	.	.	.	.	4c#X/	.	.	.	.	.
*	*	*	*	*	*	*	*	*	*	*custos:dd	*
!	!	!	!	!	!	!	!	!	!	!LO:LB:g=original	!
=49-	=49-	=49-	=49-	=49-	=49-	=49-	=49-	=49-	=49-	=49-	=49-
2r	.	2r	.	1f	-chi	2d/	-chi	.	.	2r	.
*	*	*	*	*	*	*custos:a	*	*	*	*	*
!	!	!	!	!	!	!LO:LB:g=original	!	!	!	!	!
2.D/	Dun-	2.d\	Dun-	.	.	2a\	Dun-	.	.	2.dd\	Dun-
=50-	=50-	=50-	=50-	=50-	=50-	=50-	=50-	=50-	=50-	=50-	=50-
.	.	.	.	1r	.	2f\	-que	1r	.	.	.
4d\	-que	4f\	-que	.	.	.	.	.	.	4a/	-que
2c\	potr-	2e\	po-	.	.	2g\	po-	.	.	2cc\	pot-
=51-	=51-	=51-	=51-	=51-	=51-	=51-	=51-	=51-	=51-	=51-	=51-
2B-\	-ai	4f\	-trai	4r	.	2b-\	-trar	00r	.	2dd\	-rar
.	.	2B-/	(mi	2f\	(mi-	.	.	.	.	.	.
4BB-/	(mi	.	.	.	.	2r	.	.	.	4d/	(mi
4Cny/	dic'-	4G/	di-	2c/	-dic'-	.	.	.	.	4e/	di-
*	*	*custos:F	*	*	*	*	*	*	*	*	*
!	!	!LO:LB:g=original	!	!	!	!	!	!	!	!	!
=52-	=52-	=52-	=52-	=52-	=52-	=52-	=52-	=52-	=52-	=52-	=52-
2D/	-el-	2F/	-c'el-	.	.	1r	.	.	.	2f/	-c'el-
!	!	!	!	!LO:N:acc=#	!	!	!	!	!	!	!
.	.	.	.	4Bn/	-el-	.	.	.	.	.	.
2C/	-la)	2G/	-la)	2c/	-la)	.	.	.	.	2e/	-la)
=53-	=53-	=53-	=53-	=53-	=53-	=53-	=53-	=53-	=53-	=53-	=53-
4c\	pa-	0r	.	4e\	pa-	4g\	pa-	.	.	4ee\	pa-
2c\	-ti-	.	.	2g\	-ti-	2e/	-ti-	.	.	2ee\	-ti-
4A\	-re	.	.	4a\	-re	4e/	-re	.	.	4cc\	-re
*custos:d	*	*	*	*	*	*	*	*	*	*	*
!LO:LB:g=original	!	!	!	!	!	!	!	!	!	!	!
=54-	=54-	=54-	=54-	=54-	=54-	=54-	=54-	=54-	=54-	=54-	=54-
2d\	laſ-	.	.	4r	.	4r	.	.	.	2ff\	las-
.	.	.	.	4d\	laſ-	4f\	laſ-	.	.	.	.
4c\	-ciar	.	.	4e\	-ciar	4g\	-ctar	.	.	4ee\	-ctar
4B-\	per	.	.	4f\	per	4d/	per	.	.	4dd\	per
=55-	=55-	=55-	=55-	=55-	=55-	=55-	=55-	=55-	=55-	=55-	=55-
4A\	tropp'-	1r	.	4c\	tropp'-	4a\	tropp'-	1r	.	4cc\	tropp'a-
4G\	-a-	.	.	4d\	-a-	4b-\	-a-	.	.	4b-y\	-ma-
1F\	-me-	.	.	2f\	-ma-	2cc\	-ma-	.	.	1a/	-ri'-
=56-	=56-	=56-	=56-	=56-	=56-	=56-	=56-	=56-	=56-	=56-	=56-
.	.	2a\	laſ-	0c	-ri'un	2.cc\	-ri'-	2ff\	laſ-	.	.
1C/	-ri'vn	4g\	-ciar	.	.	.	.	4ee\	-ciar	1cc\	-vn
.	.	4f\	per	.	.	8b-\	-vn	4dd\	per	.	.
.	.	.	.	.	.	8a\	.	.	.	.	.
*	*	*	*	*custos:F	*	*	*	*	*	*custos:cc	*
!	!	!	!	!LO:LB:g=original	!	!	!	!	!	!LO:LB:g=original	!
=57-	=57-	=57-	=57-	=57-	=57-	=57-	=57-	=57-	=57-	=57-	=57-
.	.	4e\	tro-	.	.	2g\	.	4cc\	tropp'-	.	.
.	.	4d\	-pp'a-	.	.	.	.	4b-/	-a-	.	.
1F\	cor	2c/	-ma-	.	.	8f\	cor	2a/	-ma-	1cc\	cor
.	.	.	.	.	.	8e\	.	.	.	.	.
.	.	.	.	.	.	8f\	.	.	.	.	.
.	.	.	.	.	.	8g\	.	.	.	.	.
*	*	*	*	*	*	*custos:a	*	*	*	*	*
!	!	!	!	!	!	!LO:LB:g=original	!	!	!	!	!
=58-	=58-	=58-	=58-	=58-	=58-	=58-	=58-	=58-	=58-	=58-	=58-
.	.	2A/	-ri'vn	2F/	cor	2a\	.	2ff\	-ri'un	.	.
2G\	mo-	1d\	cor	4r	.	2g\	mo-	1dd\	cor	2b-/	mo-
.	.	.	.	4B-y/	vn	.	.	.	.	.	.
=59-	=59-	=59-	=59-	=59-	=59-	=59-	=59-	=59-	=59-	=59-	=59-
0D	-ri-	.	.	2A/	cor	2f#X\	-ri-	.	.	0dd	-ri-
.	.	2d\	mo-	2G/	mo-	2.g\	.	2b-/	mo-	.	.
=60-	=60-	=60-	=60-	=60-	=60-	=60-	=60-	=60-	=60-	=60-	=60-
.	.	1d	-ri-	1A	-ri-	.	.	1a	ri-	.	.
.	.	.	.	.	.	8fny\	.	.	.	.	.
.	.	.	.	.	.	8e\	.	.	.	.	.
.	.	.	.	.	.	2f#X\	.	.	.	.	.
=61-	=61-	=61-	=61-	=61-	=61-	=61-	=61-	=61-	=61-	=61-	=61-
!	!	!	!	!	!	!	!	!LO:N:acc=#	!	!	!
00G	-re.	00d	-re.	00G	-re.	00g	-re.	00bn	-re.	00dd	-re.
==	==	==	==	==	==	==	==	==	==	==	==
*-	*-	*-	*-	*-	*-	*-	*-	*-	*-	*-	*-
!!!system-decoration: [(s1,s2,s3,s4,s5,s6)]
!!!ENC: Berenika Jozajtis
!!!END: 2022-06-16
!!!ENC: Jan Barakat
!!!END: 2022-07-23
